public/faqbkgr.svg

<svg width="667" height="249" viewBox="0 0 667 249" fill="none" xmlns="http://www.w3.org/2000/svg">
<path d="M12.4818 224.163L6.91945 245.284C6.75245 245.919 7.23073 246.539 7.88648 246.539H20.2263L43.1597 243.626C43.2128 243.619 43.2664 243.617 43.32 243.619L107.165 245.808L171.091 241.789L281.895 245.808C288.998 245.808 304.397 245.37 309.17 243.616C313.943 241.862 321.387 242.885 324.512 243.616L345.742 245.8C345.794 245.806 345.847 245.807 345.899 245.804L385.88 243.616L506.913 245.808L527.272 243.626C527.336 243.619 527.402 243.619 527.467 243.624L552.009 245.801C552.061 245.806 552.113 245.806 552.165 245.803L584.476 243.616L638.926 245.804C638.992 245.807 639.059 245.803 639.125 245.792L652.436 243.652C652.585 243.628 652.728 243.571 652.852 243.484L661.613 237.337C661.88 237.15 662.039 236.844 662.039 236.519V226.357C662.039 226.173 661.988 225.993 661.893 225.837L657.071 217.911C656.975 217.755 656.925 217.575 656.925 217.392V204.883V195.345C656.925 195.132 656.993 194.924 657.12 194.752L661.631 188.628C661.877 188.294 661.891 187.844 661.667 187.495L652.931 173.875C652.762 173.612 652.726 173.286 652.833 172.992L656.864 161.931C656.904 161.821 656.925 161.705 656.925 161.588V148.245V124.822C656.925 124.609 656.993 124.401 657.12 124.229L661.649 118.08C661.886 117.759 661.909 117.328 661.708 116.983L657.197 109.248C657.027 108.957 657.016 108.599 657.167 108.297L661.917 98.7927C661.997 98.6336 662.033 98.4561 662.021 98.2785L656.946 22.8614C656.932 22.6557 656.982 22.4507 657.09 22.2745L661.645 14.7886C661.878 14.4056 661.828 13.9143 661.522 13.5865L657.194 8.94792C657.021 8.76276 656.925 8.51895 656.925 8.26572V5.46184C656.925 4.98439 656.587 4.57353 656.119 4.48087L646.003 2.47923C645.898 2.45847 645.79 2.45468 645.684 2.46799L611 6.81996C610.933 6.82848 610.864 6.83 610.796 6.82452L556.438 2.45508C556.379 2.4503 556.321 2.45058 556.262 2.45645C548.836 3.19176 532.803 4.86298 527.369 5.73654C521.955 6.60687 511.617 4.67006 507.017 3.56917C506.946 3.55209 506.876 3.54349 506.802 3.54227L441.283 2.44789L412.303 5.73654L335.7 6.83122C335.628 6.83224 335.557 6.82558 335.487 6.81133L319.496 3.56412C319.431 3.55081 319.364 3.54411 319.297 3.54411H260.586C256.893 3.90952 248.995 4.64032 246.949 4.64032C244.94 4.64032 238.385 3.23123 235.19 2.48836C235.073 2.46129 234.955 2.4557 234.837 2.47095L209.521 5.72685C209.471 5.73331 209.421 5.73595 209.37 5.73474L70.5144 2.44789L29.6929 4.63545C29.6325 4.63869 29.5719 4.63643 29.5118 4.62871L13.3935 2.55569C12.9095 2.49345 12.4513 2.78961 12.3092 3.25645L10.0738 10.6038C10.0242 10.7667 9.93391 10.9143 9.81136 11.0325L7.51921 13.2435C7.04832 13.6977 7.13325 14.4743 7.69119 14.816L11.3376 17.0492C11.9294 17.4117 11.9811 18.252 11.4382 18.6843L7.14911 22.0992C6.81414 22.3659 6.68613 22.8162 6.83075 23.2193L9.93946 31.882C9.97835 31.9904 9.99823 32.1046 9.99823 32.2198L9.99823 48.489L9.99823 54.5735C9.99823 54.6581 10.009 54.7424 10.0302 54.8243L12.507 64.3806C12.5389 64.5037 12.547 64.6317 12.531 64.7578L9.99823 84.6642C8.86178 89.5363 6.58887 99.792 6.58887 101.838C6.58887 103.852 10.44 117.352 12.4582 124.166C12.5219 124.381 12.5101 124.607 12.427 124.816L6.70497 139.184C6.62939 139.373 6.61374 139.582 6.66015 139.781L12.4767 164.717C12.5276 164.935 12.5038 165.164 12.4091 165.367L6.75728 177.482C6.64914 177.714 6.63393 177.978 6.7148 178.221L9.91383 187.821C9.96913 187.987 9.97993 188.164 9.94516 188.336L6.64009 204.63C6.60649 204.796 6.61543 204.967 6.66606 205.129L12.4688 223.609C12.5253 223.788 12.5298 223.981 12.4818 224.163Z" fill="#484BFE" fill-opacity="0.41"/>
<path d="M8.445 27.1896L1.41294 8.63047C1.19496 8.05516 1.53222 7.43749 2.1268 7.32312L15.1535 4.81727C15.2539 4.79795 15.3573 4.79433 15.4598 4.80653L38.3539 7.5299C38.4074 7.53626 38.4611 7.53833 38.5146 7.5361L102.26 4.87114L166.341 8.41374L276.964 3.56945C284.066 3.51653 299.48 3.84023 304.324 5.55834C309.168 7.27645 316.569 6.19802 319.664 5.44405L340.802 3.10187C340.853 3.09611 340.906 3.09446 340.958 3.09694L381.023 4.98687L501.948 1.89312L522.392 3.92309C522.457 3.92956 522.523 3.92967 522.587 3.92343L547.037 1.56408C547.089 1.55909 547.141 1.55815 547.193 1.56128L579.588 3.50738L633.94 0.913679C634.007 0.910508 634.074 0.913991 634.14 0.924076L647.536 2.96455C647.687 2.98749 647.832 3.04412 647.959 3.13019L656.971 9.21057C657.245 9.39565 657.416 9.6996 657.43 10.0252L657.845 20.1863C657.853 20.3694 657.81 20.5494 657.721 20.7065L653.223 28.6671C653.134 28.8242 653.091 29.0042 653.098 29.1873L653.61 41.6945L654 51.2309C654.009 51.444 654.085 51.651 654.219 51.8217L658.98 57.9123C659.239 58.2437 659.272 58.6935 659.063 59.0435L650.884 72.7278C650.726 72.9915 650.703 73.3176 650.822 73.6096L655.306 84.6404C655.35 84.7497 655.375 84.8653 655.38 84.9819L655.926 98.3235L656.883 121.743C656.892 121.956 656.969 122.163 657.102 122.334L661.883 128.449C662.132 128.768 662.173 129.198 661.986 129.544L657.792 137.313C657.634 137.605 657.637 137.962 657.8 138.262L662.939 147.731C663.025 147.889 663.068 148.066 663.064 148.244L661.073 223.687C661.068 223.893 661.126 224.097 661.24 224.272L666.102 231.724C666.35 232.105 666.32 232.596 666.028 232.926L661.889 237.597C661.724 237.783 661.638 238.027 661.649 238.28L661.763 241.085C661.783 241.562 661.462 241.974 660.998 242.071L650.965 244.147C650.861 244.169 650.753 244.173 650.647 244.161L615.791 240.068C615.722 240.06 615.654 240.059 615.586 240.065L561.415 244.839C561.355 244.844 561.298 244.844 561.239 244.839C553.784 244.159 537.685 242.607 532.216 241.774C526.768 240.944 516.51 242.958 511.956 244.093C511.885 244.111 511.816 244.12 511.742 244.121L446.277 245.704L417.167 242.632L340.531 242.108C340.46 242.107 340.388 242.114 340.319 242.129L324.464 245.495C324.399 245.509 324.332 245.516 324.265 245.516L265.564 245.954C261.856 245.616 253.929 244.944 251.883 244.959C249.875 244.974 243.379 246.432 240.214 247.199C240.099 247.227 239.981 247.233 239.862 247.219L214.417 244.152C214.366 244.146 214.316 244.144 214.265 244.145L75.5652 248.466L34.6606 246.583C34.5999 246.58 34.5394 246.583 34.4796 246.591L18.4489 248.784C17.9674 248.849 17.497 248.557 17.3359 248.091L14.8002 240.761C14.7441 240.599 14.6478 240.452 14.5205 240.335L12.1372 238.14C11.6482 237.69 11.7013 236.914 12.2449 236.568L15.8015 234.307C16.3781 233.94 16.3954 233.101 15.8353 232.673L11.4056 229.289C11.06 229.025 10.9137 228.577 11.0417 228.173L13.7961 219.488C13.8305 219.379 13.8457 219.265 13.841 219.15L13.1758 202.883L12.9271 196.799C12.9236 196.715 12.9309 196.631 12.9487 196.549L15.0345 186.975C15.0613 186.852 15.0642 186.724 15.0431 186.598L11.6968 166.713C10.3613 161.851 7.66944 151.613 7.58578 149.567C7.50345 147.554 10.8022 134.027 12.5414 127.199C12.5963 126.984 12.5752 126.759 12.4837 126.551L6.17482 112.227C6.0916 112.038 6.06747 111.83 6.10569 111.631L10.902 86.6546C10.9439 86.4364 10.9108 86.2081 10.808 86.0061L4.66122 73.9343C4.54377 73.7037 4.51779 73.4398 4.58863 73.1969L7.39493 63.5735C7.44337 63.4074 7.4469 63.2301 7.40519 63.0592L3.43423 46.7911C3.39392 46.626 3.39585 46.4547 3.43982 46.2934L8.47672 27.8076C8.53175 27.6056 8.52065 27.3893 8.445 27.1896Z" fill="url(#paint0_linear_828_6191)" fill-opacity="0.41"/>
<path d="M652.36 218.639L665.344 238.045C665.778 238.694 665.36 239.547 664.592 239.579L645.568 240.372C645.515 240.374 645.462 240.372 645.409 240.365L622.921 237.705C622.868 237.699 622.815 237.697 622.762 237.699L560.342 240.3L497.597 236.853L389.273 241.58C382.319 241.632 367.225 241.318 362.483 239.644C357.74 237.971 350.493 239.022 347.462 239.757L326.765 242.04C326.713 242.046 326.661 242.047 326.609 242.045L287.379 240.206L168.97 243.229L148.953 241.252C148.888 241.246 148.823 241.246 148.758 241.252L124.819 243.552C124.768 243.557 124.716 243.558 124.664 243.555L92.9448 241.661L39.6249 244.197L22.3147 244.197C21.4514 244.197 20.9597 243.178 21.512 242.533L22.681 241.169C23.0651 240.721 22.9588 240.026 22.454 239.684L17.1825 236.118C16.9089 235.933 16.7381 235.629 16.7249 235.304L16.3227 225.425C16.3152 225.241 16.3586 225.061 16.4482 224.903L20.8478 217.161C20.9374 217.003 20.9808 216.823 20.9733 216.639L20.4775 204.462L20.0997 195.181C20.0909 194.967 20.0137 194.759 19.8794 194.588L15.2375 188.678C14.9766 188.346 14.9436 187.894 15.1545 187.543L23.1513 174.239C23.3102 173.975 23.3333 173.647 23.2137 173.354L18.8351 162.626C18.7904 162.516 18.765 162.4 18.7602 162.283L18.2312 149.29L17.3026 126.483C17.2939 126.269 17.2167 126.062 17.0824 125.891L12.421 119.956C12.1699 119.636 12.1291 119.204 12.3173 118.857L16.4107 111.319C16.5699 111.025 16.5669 110.666 16.4026 110.365L11.3857 101.162C11.299 101.003 11.2559 100.825 11.2607 100.647L13.2373 27.1626C13.2428 26.9562 13.184 26.751 13.0689 26.5753L8.32899 19.3422C8.07889 18.9604 8.10936 18.4673 8.40355 18.137L12.4366 13.6096C12.6027 13.4231 12.6893 13.1782 12.679 12.9244L12.5691 10.2255C12.5497 9.74813 12.8709 9.33492 13.3359 9.23914L23.1405 7.21937C23.2442 7.19802 23.3512 7.19346 23.4573 7.20587L57.5825 11.1905C57.6504 11.1985 57.7188 11.1995 57.7865 11.1935L110.829 6.53924C110.888 6.53407 110.945 6.53392 111.004 6.53931C118.304 7.20122 134.066 8.71157 139.421 9.52265C144.755 10.3307 154.798 8.36889 159.258 7.26274C159.329 7.24527 159.398 7.23623 159.471 7.23448L223.573 5.68844L252.076 8.67964L327.115 9.18474C327.187 9.18523 327.258 9.17808 327.327 9.16344L342.85 5.88388C342.915 5.87021 342.981 5.86306 343.048 5.86256L400.527 5.43244C404.157 5.76133 411.919 6.41534 413.922 6.40035C415.888 6.38564 422.247 4.96591 425.347 4.21867C425.461 4.19098 425.579 4.18455 425.697 4.19878L450.607 7.1844C450.658 7.19042 450.708 7.19265 450.758 7.19108L586.573 2.97206L626.625 4.80385C626.685 4.8066 626.745 4.80392 626.805 4.79582L642.485 2.66078C642.966 2.59531 643.436 2.88719 643.597 3.35179L646.069 10.4674C646.125 10.6301 646.222 10.7769 646.35 10.8941L648.65 13.0026C649.142 13.453 649.088 14.2321 648.542 14.5775L645.12 16.742C644.541 17.1084 644.524 17.951 645.086 18.3788L649.375 21.6388C649.722 21.9028 649.869 22.3534 649.74 22.7581L647.048 31.1956C647.013 31.3045 646.998 31.4193 647.002 31.5348L647.647 47.3778L647.889 53.3009C647.892 53.3859 647.885 53.4705 647.867 53.5528L645.823 62.8709C645.796 62.9945 645.793 63.123 645.814 63.2494L649.082 82.6163C650.388 87.3539 653.02 97.3275 653.101 99.3208C653.181 101.281 649.949 114.448 648.243 121.104C648.187 121.32 648.209 121.547 648.301 121.755L654.465 135.692C654.549 135.881 654.573 136.09 654.535 136.29L649.832 160.605C649.79 160.824 649.823 161.053 649.927 161.256L655.931 172.997C656.05 173.228 656.076 173.493 656.004 173.737L653.258 183.094C653.209 183.261 653.206 183.439 653.248 183.611L657.126 199.444C657.167 199.61 657.165 199.782 657.12 199.944L652.221 217.81C652.144 218.089 652.195 218.392 652.36 218.639Z" fill="url(#paint1_linear_828_6191)" fill-opacity="0.41"/>
<defs>
<linearGradient id="paint0_linear_828_6191" x1="278.623" y1="3.66013" x2="307.397" y2="253.964" gradientUnits="userSpaceOnUse">
<stop stop-color="#4646AC"/>
<stop offset="1" stop-color="#263A6F"/>
</linearGradient>
<linearGradient id="paint1_linear_828_6191" x1="323.343" y1="236.942" x2="332.372" y2="5.8897" gradientUnits="userSpaceOnUse">
<stop stop-color="#BE54FF"/>
<stop offset="1" stop-color="#9C6AFF"/>
</linearGradient>
</defs>
</svg>

<svg xmlns="http://www.w3.org/2000/svg" width="667" height="249" fill="none"><path fill="#484BFE" fill-opacity=".41" d="m12.482 224.163-5.563 21.121a1 1 0 0 0 .967 1.255h12.34l22.934-2.913q.08-.01.16-.007l63.845 2.189 63.926-4.019 110.804 4.019c7.103 0 22.502-.438 27.275-2.192s12.217-.731 15.342 0l21.23 2.184a1 1 0 0 0 .157.004l39.981-2.188 121.033 2.192 20.359-2.182q.097-.01.195-.002l24.542 2.177q.078.007.156.002l32.311-2.187 54.45 2.188a1 1 0 0 0 .199-.012l13.311-2.14c.149-.024.292-.081.416-.168l8.761-6.147a1 1 0 0 0 .426-.818v-10.162a1 1 0 0 0-.146-.52l-4.822-7.926a1 1 0 0 1-.146-.519v-22.047c0-.213.068-.421.195-.593l4.511-6.124a1 1 0 0 0 .036-1.133l-8.736-13.62a1 1 0 0 1-.098-.883l4.031-11.061q.06-.166.061-.343v-36.766c0-.213.068-.421.195-.593l4.529-6.149a1 1 0 0 0 .059-1.097l-4.511-7.735a1 1 0 0 1-.03-.951l4.75-9.504a1 1 0 0 0 .104-.515l-5.075-75.417a1 1 0 0 1 .144-.587l4.555-7.485a1 1 0 0 0-.123-1.203l-4.328-4.638a1 1 0 0 1-.269-.682V5.462a1 1 0 0 0-.806-.981l-10.116-2.002a1 1 0 0 0-.319-.011L611 6.82a1 1 0 0 1-.204.005l-54.358-4.37a1 1 0 0 0-.176.001c-7.426.736-23.459 2.407-28.893 3.28-5.414.87-15.752-1.066-20.352-2.167a1 1 0 0 0-.215-.027l-65.519-1.094-28.98 3.289L335.7 6.83a1 1 0 0 1-.213-.02l-15.991-3.247a1 1 0 0 0-.199-.02h-58.711c-3.693.366-11.591 1.096-13.637 1.096-2.009 0-8.564-1.409-11.759-2.152a1 1 0 0 0-.353-.017l-25.316 3.256a1 1 0 0 1-.151.008L70.514 2.448 29.693 4.635a1 1 0 0 1-.181-.006L13.393 2.556a1 1 0 0 0-1.084.7l-2.235 7.348a1 1 0 0 1-.263.429l-2.292 2.21a1 1 0 0 0 .172 1.573l3.647 2.233a1 1 0 0 1 .1 1.635L7.15 22.1a1 1 0 0 0-.318 1.12l3.108 8.663a1 1 0 0 1 .06.338v22.354q0 .127.031.25l2.477 9.557q.048.186.024.377L9.998 84.664c-1.136 4.872-3.41 15.128-3.41 17.174 0 2.014 3.852 15.514 5.87 22.328a1 1 0 0 1-.031.65l-5.722 14.368a1 1 0 0 0-.045.597l5.817 24.936a1 1 0 0 1-.068.65l-5.652 12.115a1 1 0 0 0-.042.739l3.199 9.6a1 1 0 0 1 .031.515L6.64 204.63c-.034.166-.025.337.026.499l5.803 18.48a1 1 0 0 1 .013.554"/><path fill="url(#a)" fill-opacity=".41" d="M8.445 27.19 1.413 8.63a.967.967 0 0 1 .714-1.307l13.027-2.506q.15-.03.306-.01L38.354 7.53q.08.009.16.006l63.746-2.665 64.081 3.543 110.623-4.845c7.102-.052 22.516.271 27.36 1.99 4.844 1.717 12.245.639 15.34-.115l21.138-2.342a1 1 0 0 1 .156-.005l40.065 1.89 120.925-3.094 20.444 2.03a1 1 0 0 0 .195 0l24.45-2.359q.078-.007.156-.003l32.395 1.946L633.94.914q.1-.005.2.01l13.396 2.04c.151.023.296.08.423.166l9.012 6.08c.274.186.445.49.459.815l.415 10.161a.97.97 0 0 1-.124.52l-4.498 7.961a1 1 0 0 0-.125.52l.512 12.507.39 9.537c.009.213.085.42.219.59l4.761 6.091c.259.332.292.782.083 1.132l-8.179 13.684a.99.99 0 0 0-.062.882l4.484 11.03q.066.166.074.342l.546 13.341.957 23.42c.009.213.086.42.219.591l4.781 6.115c.249.319.29.749.103 1.095l-4.194 7.769a1 1 0 0 0 .008.949l5.139 9.469c.086.158.129.335.125.513l-1.991 75.443c-.005.206.053.41.167.585l4.862 7.452a.99.99 0 0 1-.074 1.202l-4.139 4.671a.96.96 0 0 0-.24.683l.114 2.805a.96.96 0 0 1-.765.986l-10.033 2.076a1 1 0 0 1-.318.014l-34.856-4.093a1 1 0 0 0-.205-.003l-54.171 4.774q-.089.007-.176 0c-7.455-.68-23.554-2.232-29.023-3.065-5.448-.83-15.706 1.184-20.26 2.319a1 1 0 0 1-.214.028l-65.465 1.583-29.11-3.072-76.636-.524a1 1 0 0 0-.212.021l-15.855 3.366a1 1 0 0 1-.199.021l-58.701.438c-3.708-.338-11.635-1.01-13.681-.995-2.008.015-8.504 1.473-11.669 2.24a1 1 0 0 1-.352.02l-25.445-3.067a1 1 0 0 0-.152-.007l-138.7 4.321-40.904-1.883a1 1 0 0 0-.181.008l-16.031 2.193a1.04 1.04 0 0 1-1.113-.693l-2.536-7.33a1.04 1.04 0 0 0-.28-.426l-2.383-2.195c-.489-.45-.436-1.226.108-1.572l3.557-2.261c.576-.367.593-1.206.033-1.634l-4.43-3.384a1.02 1.02 0 0 1-.363-1.116l2.754-8.685a1 1 0 0 0 .045-.338l-.665-16.267-.249-6.084a1 1 0 0 1 .022-.25l2.085-9.574a1 1 0 0 0 .01-.377l-3.347-19.885c-1.336-4.862-4.028-15.1-4.111-17.146-.083-2.013 3.216-15.54 4.955-22.368a1 1 0 0 0-.057-.648l-6.31-14.324a1 1 0 0 1-.068-.596l4.796-24.976a1 1 0 0 0-.094-.649L4.661 73.934a1 1 0 0 1-.072-.737l2.806-9.623a1 1 0 0 0 .01-.515l-3.97-16.268a1 1 0 0 1 .005-.498l5.037-18.485a1 1 0 0 0-.032-.618"/><path fill="url(#b)" fill-opacity=".41" d="m652.36 218.639 12.984 19.406c.434.649.016 1.502-.752 1.534l-19.024.793a1 1 0 0 1-.159-.007l-22.488-2.66a1 1 0 0 0-.159-.006l-62.42 2.601-62.745-3.447-108.324 4.727c-6.954.052-22.048-.262-26.79-1.936s-11.99-.622-15.021.113l-20.697 2.283a1 1 0 0 1-.156.005l-39.23-1.839-118.409 3.023-20.017-1.977a1 1 0 0 0-.195 0l-23.939 2.3a1 1 0 0 1-.155.003l-31.72-1.894-53.32 2.536h-17.31c-.863 0-1.354-1.019-.802-1.664l1.169-1.364c.384-.448.278-1.143-.227-1.485l-5.271-3.566a1.04 1.04 0 0 1-.458-.814l-.402-9.879a1 1 0 0 1 .125-.522l4.4-7.742a1 1 0 0 0 .125-.522l-.495-12.177-.378-9.281a1.03 1.03 0 0 0-.22-.593l-4.642-5.91a1 1 0 0 1-.083-1.135l7.996-13.304a.99.99 0 0 0 .063-.885l-4.379-10.728a1 1 0 0 1-.075-.343l-.529-12.993-.928-22.807a1.03 1.03 0 0 0-.22-.592l-4.662-5.935a1.01 1.01 0 0 1-.104-1.099l4.094-7.538a1 1 0 0 0-.008-.954l-5.017-9.203a1 1 0 0 1-.125-.515l1.976-73.484a1.02 1.02 0 0 0-.168-.588l-4.74-7.233a.99.99 0 0 1 .075-1.205l4.033-4.527a.97.97 0 0 0 .242-.686l-.11-2.698a.96.96 0 0 1 .767-.987l9.805-2.02a1 1 0 0 1 .316-.013l34.126 3.984a1 1 0 0 0 .203.004l53.043-4.655a1 1 0 0 1 .175 0c7.3.662 23.062 2.173 28.417 2.984 5.334.808 15.377-1.154 19.837-2.26a1 1 0 0 1 .213-.029l64.102-1.546 28.503 2.992 75.039.505a1 1 0 0 0 .212-.022l15.523-3.28a1 1 0 0 1 .198-.02l57.479-.43c3.63.328 11.392.982 13.395.967 1.966-.014 8.325-1.434 11.425-2.181a1 1 0 0 1 .35-.02l24.91 2.985q.076.01.151.007l135.815-4.219 40.052 1.832a1 1 0 0 0 .18-.008l15.68-2.135c.481-.066.951.226 1.112.69l2.472 7.116c.056.163.153.31.281.427l2.3 2.109c.492.45.438 1.23-.108 1.575l-3.422 2.164c-.579.366-.596 1.209-.034 1.637l4.289 3.26c.347.264.494.714.365 1.12l-2.692 8.437a1 1 0 0 0-.046.339l.645 15.843.242 5.923q.005.128-.022.252l-2.044 9.318c-.027.123-.03.252-.009.378l3.268 19.367c1.306 4.738 3.938 14.712 4.019 16.705.08 1.96-3.152 15.127-4.858 21.783a1 1 0 0 0 .058.651l6.164 13.937c.084.189.108.398.07.598l-4.703 24.315a1 1 0 0 0 .095.651l6.004 11.741a1 1 0 0 1 .073.74l-2.746 9.357a1 1 0 0 0-.01.517l3.878 15.833a1 1 0 0 1-.006.5l-4.899 17.866c-.077.279-.026.582.139.829"/><defs><linearGradient id="a" x1="278.623" x2="307.397" y1="3.66" y2="253.964" gradientUnits="userSpaceOnUse"><stop stop-color="#4646AC"/><stop offset="1" stop-color="#263A6F"/></linearGradient><linearGradient id="b" x1="323.343" x2="332.372" y1="236.942" y2="5.89" gradientUnits="userSpaceOnUse"><stop stop-color="#BE54FF"/><stop offset="1" stop-color="#9C6AFF"/></linearGradient></defs></svg>
